SVG/ico__rs_github.svg

<svg xmlns="http://www.w3.org/2000/svg" viewBox="0 0 240 240">
    <path d="M120,40c-45.32,0-82.02,36.71-82.02,82.02,0,36.3,23.48,66.95,56.08,77.82,4.1.72,5.64-1.74,5.64-3.9,0-1.95-.1-8.41-.1-15.28-20.61,3.79-25.94-5.02-27.58-9.64-.92-2.36-4.92-9.64-8.41-11.59-2.87-1.54-6.97-5.33-.1-5.43,6.46-.1,11.07,5.95,12.61,8.41,7.38,12.41,19.17,8.92,23.89,6.77.72-5.33,2.87-8.92,5.23-10.97-18.25-2.05-37.32-9.13-37.32-40.5,0-8.92,3.18-16.3,8.41-22.04-.82-2.05-3.69-10.46.82-21.74,0,0,6.87-2.15,22.56,8.41,6.56-1.85,13.53-2.77,20.51-2.77s13.94.92,20.51,2.77c15.69-10.66,22.56-8.41,22.56-8.41,4.51,11.28,1.64,19.69.82,21.74,5.23,5.74,8.41,13.02,8.41,22.04,0,31.48-19.17,38.45-37.42,40.5,2.97,2.56,5.54,7.48,5.54,15.17,0,10.97-.1,19.79-.1,22.56,0,2.15,1.54,4.72,5.64,3.9,32.4-10.87,55.88-41.63,55.88-77.82,0-45.32-36.71-82.02-82.02-82.02Z"/>
</svg>

<svg width="240" height="240" viewBox="0 0 240 240" fill="none" xmlns="http://www.w3.org/2000/svg">
<path fill-rule="evenodd" clip-rule="evenodd" d="M120.02 40C74.71 40 38 76.71 38 122.02C38 158.32 61.48 188.97 94.08 199.84C98.18 200.56 99.72 198.1 99.72 195.94C99.72 193.99 99.62 187.53 99.62 180.66C79.01 184.45 73.68 175.64 72.04 171.02C71.12 168.66 67.12 161.38 63.63 159.43C60.76 157.89 56.66 154.1 63.53 154C69.99 153.9 74.6 159.95 76.14 162.41C83.52 174.82 95.31 171.33 100.03 169.18C100.75 163.85 102.9 160.26 105.26 158.21C87.01 156.16 67.94 149.08 67.94 117.71C67.94 108.79 71.12 101.41 76.35 95.67C75.53 93.62 72.66 85.21 77.17 73.93C77.17 73.93 84.04 71.78 99.73 82.34C106.29 80.49 113.26 79.57 120.24 79.57C127.22 79.57 134.18 80.49 140.75 82.34C156.44 71.68 163.31 73.93 163.31 73.93C167.82 85.21 164.95 93.62 164.13 95.67C169.36 101.41 172.54 108.69 172.54 117.71C172.54 149.19 153.37 156.16 135.12 158.21C138.09 160.77 140.66 165.69 140.66 173.38C140.66 184.35 140.56 193.17 140.56 195.94C140.56 198.09 142.1 200.66 146.2 199.84C178.6 188.97 202.08 158.21 202.08 122.02C202.05 76.71 165.34 40 120.02 40Z" fill="black"/>
</svg>
